X:133
T:Neil Gow's Strathspey +
B:NFID.191b
133neil_g
N:I apologize for not knowing which of the notes in the double-stops is
the melody note. I'm guessing that it's the bottom note in m.5 and the
top note in m.6.
S:DOD
L:1/8
M:C
R:hornpipe
Q:280
K:F
FGAF E<GF2|AFcF A<cc2|dfcf BfAf|
[1 (3agf (3efd (3cdB (3ABG:|2 (3agf (3efg f<F [A2F2]||
[AF][BG][cA]B A<[fA] [f2A2]|[ec][fd][ge]e f<a a2|bgaf gefg|
[1 (3agf (3efd (3cdB (3ABG:|2 (3agf (3efg a<f Hf2|]
= = =
P:simplified version in D
K:D
DEFD C<ED2|FDAD F<AA2|BdAd GdFd|1 fdcB AGFE:|2 fdce dDD2||
[FD][GE][AF]G F<[dF] [d2F2]|[cA][dB][ec]c d<f f2|gefd ecde|
[1 fdcB AGFE:|2 fdce fdd2|]

%%%

